images/BRITOSH_LOGO.svg

<svg width="120" height="35" viewBox="0 0 120 35" fill="none" xmlns="http://www.w3.org/2000/svg">
<g opacity="0.7">
<path fill-rule="evenodd" clip-rule="evenodd" d="M40.9109 15.8021V1.28283H46.2051C47.3278 1.28283 48.0502 1.52342 48.6918 1.764C50.136 2.48575 50.7769 3.84974 50.7769 5.05266C50.7769 6.41665 50.2155 7.37898 49.0921 8.10073C50.7769 8.50171 51.7399 9.62511 51.7399 11.3894C51.7399 13.3949 50.5363 14.8384 48.5307 15.4807C47.809 15.7213 47.007 15.8015 45.8034 15.8015H40.9109V15.8021V15.8021ZM47.408 3.76954C47.007 3.60916 46.606 3.52896 46.044 3.52896H43.3167V7.29879H45.8836C46.6054 7.29879 47.0872 7.21859 47.4882 6.97801C47.759 6.82706 47.984 6.60569 48.1393 6.33734C48.2945 6.06899 48.3744 5.76365 48.3703 5.45363C48.3703 4.73256 47.9694 4.09032 47.408 3.76954V3.76954ZM48.1304 9.7855C47.8096 9.62511 47.3278 9.54492 46.5259 9.54492H43.3174V13.5553H46.2853C47.2476 13.5553 47.7295 13.3949 48.1304 13.2345C48.8522 12.9138 49.173 12.2715 49.173 11.4696C49.173 10.6676 48.8522 10.107 48.1304 9.7855V9.7855ZM66.1783 15.8021V1.28283H68.6657V15.8021H66.1783ZM84.2269 15.8021V1.28283H86.7143V15.8021H84.2269ZM94.6556 1.20264C96.2588 1.20264 97.864 1.60361 98.7469 2.00526L98.666 4.41178C97.3822 3.77022 96.18 3.36857 94.6563 3.36857C93.2916 3.36857 92.0894 3.76954 92.0894 4.89295C92.0894 7.86083 99.5495 6.65723 99.5495 11.5505C99.5495 14.2778 97.3034 15.9625 93.9345 15.9625C91.6884 15.9625 90.1633 15.321 89.0406 14.6787L90.0838 12.6732C90.9666 13.2346 92.4108 13.7959 94.014 13.7959C95.5377 13.7959 96.9024 13.2345 96.9024 11.9514C96.9024 8.82249 89.5224 10.1865 89.5224 5.29324C89.5218 2.64682 91.6068 1.20264 94.6556 1.20264ZM111.26 15.8021V9.5456H104.28V15.8021H101.794V1.28283H104.28V7.21927H111.26V1.28283H113.746V15.8021H111.26ZM46.3655 18.2888C47.8892 18.2888 49.0928 18.6096 50.3759 19.171L49.6541 21.2567C48.9324 20.9353 47.9694 20.535 46.606 20.535C43.8787 20.535 42.194 22.8613 42.194 25.6688C42.194 28.5572 43.7986 30.8828 46.606 30.8828C47.9694 30.8828 48.9324 30.4818 49.6541 30.161L50.3759 32.2461C49.0921 32.8075 47.8892 33.1289 46.3655 33.1289C42.0336 33.1289 39.5469 30.0809 39.5469 25.749C39.5469 21.6577 42.0336 18.2888 46.3655 18.2888V18.2888ZM100.592 18.2888C102.195 18.2888 103.4 18.6096 104.602 19.171L103.88 21.2567C103.158 20.9353 102.195 20.535 100.833 20.535C98.1046 20.535 96.4206 22.8613 96.4206 25.6688C96.4206 28.5572 98.0251 30.8828 100.833 30.8828C102.196 30.8828 103.158 30.4818 103.88 30.161L104.602 32.2461C103.399 32.8075 102.195 33.1289 100.592 33.1289C96.2595 33.1289 93.7734 30.0809 93.7734 25.749C93.7728 21.6577 96.2595 18.2888 100.592 18.2888V18.2888ZM64.4935 25.6681C64.4935 30 61.7669 33.1289 57.6756 33.1289C53.5843 33.1289 50.857 30.0809 50.857 25.749C50.857 21.4171 53.585 18.2888 57.6756 18.2888C61.8471 18.2888 64.4935 21.3369 64.4935 25.6681V25.6681ZM61.9266 25.6681C61.9266 22.5398 60.0828 20.5343 57.6756 20.5343C55.2691 20.5343 53.4246 22.5398 53.4246 25.7483C53.4246 28.8773 55.2698 30.8821 57.6756 30.8821C60.0828 30.8821 61.9266 28.8773 61.9266 25.6681ZM66.1783 27.4331V18.4492H68.6657V27.5133C68.6657 30 69.9495 30.8821 72.0346 30.8821C74.1196 30.8821 75.4034 30 75.4034 27.5133V18.4492H77.8895V27.4331C77.8895 31.364 75.6433 33.1289 72.0346 33.1289C68.4244 33.1289 66.1783 31.364 66.1783 27.4331V27.4331ZM82.5421 22.3795H82.4626C82.5421 22.8606 82.5421 23.6632 82.5421 24.3048V32.8877H80.0561V18.4492H82.7841L89.4409 28.3159H89.5218C89.4409 27.8347 89.4409 27.0321 89.4409 26.3905V18.4492H91.9283V32.8877H89.7617L82.5421 22.3795ZM106.528 32.8877V18.4492H109.014V32.8877H106.528ZM111.26 32.8877V18.4492H113.746V30.6422H119.442V32.8877H111.26ZM82.3022 1.36371H70.5904V3.60916H75.243V15.8021H77.7304V3.60916H82.3022V1.36371V1.36371ZM61.7676 15.8021C59.6812 11.3901 59.1198 10.1872 58.2377 10.1872H55.9114V15.8021H53.4246V1.36371H58.3179C62.0877 1.36371 63.4524 3.28906 63.4524 5.45431C63.4524 7.45986 62.4092 8.74297 60.8046 9.22414C61.4468 9.62511 62.1693 10.9891 64.5758 15.8021H61.7676V15.8021ZM58.4776 3.52896H55.9107V7.94102H58.3974C60.1623 7.94102 60.9636 7.05888 60.9636 5.69489C60.9643 4.49198 60.2425 3.52896 58.4776 3.52896Z" fill="#828282"/>
<path fill-rule="evenodd" clip-rule="evenodd" d="M16.6044 8.2621C16.6044 12.8346 12.8345 16.5242 8.26209 16.5242C3.76983 16.5242 0 12.8339 0 8.2621C0 3.69032 3.76983 8.10144e-06 8.26209 8.10144e-06C12.8345 8.10144e-06 16.6044 3.68964 16.6044 8.2621ZM34.2519 8.2621C34.2535 9.34752 34.0408 10.4226 33.6261 11.4257C33.2115 12.4288 32.6029 13.3402 31.8354 14.1077C31.0679 14.8752 30.1565 15.4837 29.1534 15.8984C28.1503 16.313 27.0753 16.5257 25.9899 16.5242C21.4174 16.5242 17.7278 12.8339 17.7278 8.2621C17.7278 3.69032 21.4181 8.10144e-06 25.9899 8.10144e-06C27.0753 -0.00151291 28.1503 0.211154 29.1534 0.625824C30.1565 1.04049 31.0679 1.64902 31.8354 2.41653C32.6029 3.18403 33.2115 4.09544 33.6261 5.09853C34.0408 6.10162 34.2535 7.17668 34.2519 8.2621V8.2621ZM16.6044 25.9899C16.6044 30.5623 12.8345 34.252 8.26209 34.252C3.76983 34.252 0 30.5617 0 25.9899C0 21.4167 3.76983 17.7278 8.26209 17.7278C12.8345 17.7278 16.6044 21.4167 16.6044 25.9899ZM34.2519 25.9899C34.2535 27.0753 34.0408 28.1504 33.6261 29.1534C33.2115 30.1565 32.6029 31.0679 31.8354 31.8355C31.0679 32.603 30.1565 33.2115 29.1534 33.6262C28.1503 34.0408 27.0753 34.2535 25.9899 34.252C24.9044 34.2535 23.8294 34.0408 22.8263 33.6262C21.8232 33.2115 20.9118 32.603 20.1443 31.8355C19.3768 31.0679 18.7683 30.1565 18.3536 29.1534C17.9389 28.1504 17.7262 27.0753 17.7278 25.9899C17.7262 24.9045 17.9389 23.8294 18.3536 22.8263C18.7683 21.8232 19.3768 20.9118 20.1443 20.1443C20.9118 19.3768 21.8232 18.7683 22.8263 18.3536C23.8294 17.9389 24.9044 17.7263 25.9899 17.7278C27.0753 17.7262 28.1504 17.9388 29.1535 18.3534C30.1567 18.7681 31.0681 19.3766 31.8356 20.1441C32.6032 20.9116 33.2117 21.8231 33.6263 22.8262C34.0409 23.8293 34.2536 24.9044 34.2519 25.9899V25.9899Z" fill="#828282"/>
</g>
</svg>

<svg width="120" height="35" fill="none" xmlns="http://www.w3.org/2000/svg"><g opacity=".7" fill-rule="evenodd" clip-rule="evenodd" fill="#828282"><path d="M40.91 15.802V1.282h5.295c1.123 0 1.845.241 2.487.482 1.444.722 2.085 2.086 2.085 3.289 0 1.364-.562 2.326-1.685 3.048 1.685.4 2.648 1.524 2.648 3.288 0 2.006-1.204 3.45-3.21 4.092-.721.24-1.523.32-2.727.32h-4.892v.001zM47.409 3.77c-.401-.16-.802-.241-1.364-.241h-2.727v3.77h2.567c.721 0 1.203-.08 1.604-.321a1.72 1.72 0 00.882-1.524c0-.721-.4-1.364-.962-1.684zm.722 6.016c-.32-.16-.802-.241-1.604-.241h-3.209v4.01h2.968c.963 0 1.445-.16 1.845-.32.722-.321 1.043-.963 1.043-1.765 0-.802-.32-1.363-1.043-1.684zm18.048 6.016V1.282h2.488v14.52h-2.488zm18.049 0V1.282h2.487v14.52h-2.487zm10.429-14.6c1.603 0 3.208.402 4.09.803l-.08 2.407c-1.284-.642-2.486-1.043-4.01-1.043-1.364 0-2.567.4-2.567 1.524 0 2.968 7.46 1.764 7.46 6.657 0 2.728-2.246 4.412-5.615 4.412-2.246 0-3.77-.641-4.893-1.283l1.043-2.006c.883.562 2.327 1.123 3.93 1.123 1.524 0 2.888-.561 2.888-1.845 0-3.129-7.38-1.764-7.38-6.658 0-2.646 2.085-4.09 5.134-4.09zm16.604 14.6V9.546h-6.98v6.256h-2.486V1.282h2.486V7.22h6.98V1.283h2.486v14.52h-2.486zM46.365 18.29c1.524 0 2.728.32 4.01.882l-.72 2.086c-.723-.322-1.686-.722-3.049-.722-2.727 0-4.412 2.326-4.412 5.134 0 2.888 1.605 5.214 4.412 5.214 1.363 0 2.326-.401 3.048-.722l.722 2.085c-1.284.561-2.487.883-4.01.883-4.332 0-6.82-3.048-6.82-7.38 0-4.091 2.488-7.46 6.82-7.46zm54.227 0c1.603 0 2.808.32 4.01.882l-.722 2.086c-.722-.322-1.685-.722-3.047-.722-2.728 0-4.412 2.326-4.412 5.134 0 2.888 1.604 5.214 4.412 5.214 1.363 0 2.325-.401 3.047-.722l.722 2.085c-1.203.561-2.407.883-4.01.883-4.332 0-6.819-3.048-6.819-7.38 0-4.091 2.487-7.46 6.819-7.46zm-36.099 7.38c0 4.331-2.726 7.46-6.817 7.46-4.092 0-6.819-3.048-6.819-7.38s2.728-7.46 6.819-7.46c4.171 0 6.817 3.048 6.817 7.38zm-2.566 0c0-3.13-1.844-5.135-4.251-5.135s-4.251 2.006-4.251 5.214c0 3.13 1.845 5.134 4.25 5.134 2.408 0 4.252-2.005 4.252-5.214zm4.251 1.764V18.45h2.488v9.064c0 2.487 1.284 3.37 3.369 3.37s3.368-.883 3.368-3.37V18.45h2.486v8.984c0 3.931-2.246 5.696-5.854 5.696-3.61 0-5.857-1.765-5.857-5.696zm16.364-5.053h-.08c.08.48.08 1.283.08 1.925v8.583h-2.486V18.449h2.728l6.657 9.867h.08c-.08-.481-.08-1.284-.08-1.925v-7.942h2.487v14.439h-2.166l-7.22-10.508zm23.986 10.508V18.449h2.486v14.439h-2.486zm4.732 0V18.449h2.486v12.193h5.696v2.246h-8.182zM82.302 1.364H70.59v2.245h4.653v12.193h2.487V3.61h4.572V1.364zM61.768 15.802c-2.087-4.412-2.648-5.615-3.53-5.615H55.91v5.615h-2.486V1.364h4.893c3.77 0 5.134 1.925 5.134 4.09 0 2.006-1.043 3.289-2.647 3.77.642.401 1.364 1.765 3.77 6.578h-2.807zM58.478 3.53H55.91v4.412h2.486c1.765 0 2.567-.882 2.567-2.246 0-1.203-.721-2.166-2.486-2.166zM16.604 8.262c0 4.573-3.77 8.262-8.342 8.262C3.77 16.524 0 12.834 0 8.262 0 3.69 3.77 0 8.262 0c4.572 0 8.342 3.69 8.342 8.262zm17.648 0a8.249 8.249 0 01-8.262 8.262 8.25 8.25 0 01-8.262-8.262A8.25 8.25 0 0125.99 0a8.25 8.25 0 018.262 8.262zM16.604 25.99c0 4.572-3.77 8.262-8.342 8.262C3.77 34.252 0 30.562 0 25.99c0-4.573 3.77-8.262 8.262-8.262 4.572 0 8.342 3.689 8.342 8.262zm17.648 0a8.248 8.248 0 01-8.262 8.262 8.252 8.252 0 01-8.262-8.262 8.249 8.249 0 018.262-8.262 8.25 8.25 0 018.262 8.262z"/></g></svg>
